X:1
T:Title
%%score { 1 | ( 2 3 ) }
L:1/8
Q:1/4=120
M:4/4
K:G
V:1 treble nm="Piano"
V:2 bass 
V:3 bass 
V:1
!p! d2- g2 | .d2 .d2 .d2 .d2 | d6- eg | .d2- .d2 (dcBA | B2 G2 .A2) (c8 d2- g2) x4 | %5
 .d2 .d2 .d2 .d2 | g6 (e2 .a2) | (a.B)(B.e (e).F (F).d) | .G2 c8!f! [B,-DG]2 [B,DG]2 [B,DG]2 | %9
 (.[CDF]2 .[CDF]2 .[CDF]2 .[CDF]2) | .[B,-DG]2 .[B,DG]2 .[B,DG]2 .[B,DG]2 x2 | %11
 ([CDF]2 .[CDF]2 [CDF]2 [CDF]2) | .[B,DG] z!>(! ((d2!>)! .G)) [Ac]8 |!mf! (Be x6 | %14
 .B2) .B2 .B2 .B2 | .B z (!>!g4 fe | .B2-) .B2 c2!mf! B2 | B4 z2 (B2 | e2-) .e2 .e2 .e2 | %19
 (e2 c2 .A) z (.A/c/ x/ | (.[GB]2) .[GB]2 .[FAB]2 .[FAB]2) | [EGB]6 x8!p! B z | %22
!<(! (ef!<)!ga b) z x12!f! .B, z x8 | (EFGA B .G/EG | .B,) z .B z z2!p! d2 g2 | .d2- .d2 .d2 .d2 | %26
 !tenuto!d6 eg | .d2- .d2 (dcBA | B2 G2 .A) z d2- g2 | .d2 .d2- .d2 .d2 | g6 x2 (e2 a2) | %31
 ((a2 .B2)) | .G2 c8!f! [B,-DG]2 [B,DG]2 x6 [B,DG]2 | .[C-DF]2 .[CDF]2 .[B,F]2 .[CDF]2 | %34
 [B,-DG]2 .[B,DG]2 [B,DG]2 [B,DG]2 x2 | (.[CDF]2 .[CDF]2 .[CDF]2 .[CDF]2) | %36
 [B,DG]2 c8!>(! (d2!>)! .G2) [cc]8 |][M:3/4]!p! G2 edcB | B2!>(! A2 d2!>)! | cBAGgd | e4 ec x11/2 | %41
!>(! Ad!>)!cGec |!>(! A!>)!d .G2!<(! c!<)!B x12 |!mf! ABcAe^F | G2 z2!p! G^F | GABcdc | %46
 B2 .G z (BA | B c d x3 |!>(! d2!>)! .B) z!p! .E.=F x12 | (G2 edcB | B2 A2) (d2 | cBAGgd | %52
 e4) (ec x7/2 |!>(! A!>)!dcGec |!>(! A!>)!d .G2) x12!f! cG | Ac=fgaB | c2 z2 ([CE][D=F] | %57
 [EG]2 [CE]2) (CD | E2 C2) ([B,DG]2 | [CE]4 [B,DG]2 | !fermata![CE]6) |][M:2/4]!p! (g.b) (d2 | %62
 .g)b d2 | (defg | .a)d' (d2 | .g)b (d2 | .g)b d2 | eafd' | g3 z || (afdA | B2 e2 x4 | A)a.a.a | %72
 .A.a.aa | (afdA | B.e e2 | Aage | d2 d') z :|!p! .gb (d2 | .g)b d2 | (defg | .a)d' (d2 | %81
 .g)b (d2 | .g)b (d2 | eafd' | g3) z |!f! .[GB].[GB].[GB].[GB] | .[GB].[GB].[GB].[GB] | (B.A).G.F | %88
 (A.G).F.E |!p! E2- B2 | .E.G B2 |!f! (B.A).G.F | (E2 .e) z :|!f! .D .A/ d2 x/ |!p! .d.a x6 d'2 | %95
!f! .F.c f2 |!p! .f.c' x6 f'2 | .d.d.d.d | (e.d).a.d | (d'c'af |!f! d4) ||!p! .gb (d2 | .g)b d2 | %103
 (defg | .a)d' (d2 | .g)b (d2 | .g)b (d2 | eafd' | g2)!f! .gb | [fad']2 [fad']2 | [gb]2 .G.B x12 | %111
 .[FAd]2 .[FAd]2 | G4 |] %113
V:2
 z2 x2 | G,DB,D F,DA,D | G,DB,D G, D .C/E x/ | G,DB,D F,DCD | G,DB,D .F, x9 [C,E,]8 | %5
 (G,DB,D =F,B,G,B, | E,CG,C C,A,G,A, x2 | D,B,.G,B, D,CA,C | .[G,B,]) z x8 z2 ((G,,A,,)B,,C, | %9
 .D,2-) .D,2 .D,2 D,2 |!>(! ((D,2!>)! .G,))!<(! (G,,A,,B,,C, x3!<)! | .D,2-) .D,2 D,C,B,,A,, | %12
 .G,,2 ([D,F,C]2 .[G,B,]) E,8 | [C,E,]8 | E,F,G,A, B,A,G,F, | E,4 E,4 | %16
 [F,A,]B,[F,A,]B, [E,G,] B, [E,G,] x | B,,B,A,B, G,B,[F,A,]B, | .[E,G,]/EDE CE[B,D]E x/ | %19
 [A,C]/E[A,C]E [A,C]E[A,C]E | .B,2- .B,2 .B,2 .B,2 | %21
!<(! (.E,F,G,!<)!A, .B,2) E,8[K:treble] [B,FA] z | [B,EG]4 z2 e12 .G2 c8 | (c .d/ef gece | %24
 .G) z .c8 | G,DB,D F,DA,D | G,DB,D G,DCE | G,DB,D F,DCD | G,DB,D .F, z z2 x2 | (G,DB,D =F,B,G,B, | %30
 E,CG,C (C,2 A,2 G,2 A,2) | D, B, G, x | .[G,B,]) x9 E,8!<(! (.G,,A,,B,,!<)!C, | %33
 .D,2-)!mf! .D,2 .D,2 .D,2 |!p! (D,2 .G,)!<(! (G,,A,,B,,C, x3!<)! | .D,2-) .D,2 (D,C,B,,A,, | %36
 .G,,) z x8 ([D,F,C]2 .[G,B,]) E,8 x |][M:3/4] [C,E,]6 | [C,=F,]6 | [C,=F,G,]6 | %40
 [C,E,G,]2 (C, .E,/G,C) [=F,,C,]4 z2 | (A,,2 G,,4 | A,,2 G,,2) z2 G,12 | ([D,A,C]6 | %44
 .[G,B,]) z .G,, z z2 | z2 (G,A,B,C | D2 B,) z z2 | z2 [=F,,C,]4 | A,,2 =F,, z z2 G,12 | %49
!ped! [C,E,]6 | [C,=F,]6 | [C,=F,G,]6 | [C,E,G,]2 (C, .E,/G,C) [=F,,C,]4 |[K:treble] (=F2 E4 | %54
 =F2 E2) e12 [ca]2 | C4 x2 | [CE]!p! C,C,C,C,C, | C,C,C,C, (E,=F, | G,2 E,2) G,2 | G,4 G,2 | G,6 |] %61
[M:2/4] .[G,B,].[B,D] .[G,B,].[B,D] | .[G,B,][B,D] .[G,B,].[B,D] | [F,A,D]2 [F,A,D]2 | %64
 [F,A,D]2 [F,A,D]2 | .[G,B,]/.[B,D] .[G,B,].[B,D] x/ | .[G,B,][B,D] .[G,B,][B,D] | [G,C]2 [G,CD]2 | %68
 [G,B,D]3 z || (F,DA,D | G,EB,E) [F,,C,]2 z2 | C,,.[G,,B,,] ([G,,B,,]2 | C,,).[F,,A,,] [F,,A,,]2 | %73
 (F,DA,D | G,EB,E) | z (A,EG | [DF]3) z :| .[G,B,][B,D] .[G,B,][B,D] | .[G,B,][B,D] .[G,B,][B,D] | %79
 [F,A,D]2 [F,A,D]2 | [F,A,D]2 [F,A,D]2 | .[G,B,]/[B,D] .[G,B,].[B,D] x/ | %82
 .[G,B,].[B,D] .[G,B,].[B,D] | [G,C]2 [G,CD]2 | [G,B,D]3 z |!p! E,2- B,2 | .E,.G, B,2 | %87
 (B,.A,).G,.F, | (A,.G,).F,E, | .[E,G,B,].[E,G,B,].[E,G,B,].[E,G,B,] | %90
 .[E,G,B,].[E,G,B,].[E,G,B,].[E,G,B,] | .B,, .C.B,.A, | !>![E,G,]3 z :| z2 [F,A,CD]2 | %94
 z2 [F,,C,]4 z2 [_A,,C,_E,F,]2 | z2 [D,A,C]2 | z2 [F,,C,-]4 z2 [F,,C,E,]2 | ([F,,A,,]2 [A,,C,]2 | %98
 [C,E,]2 [A,,C,]2 | [DF]4 | !fermata![DFAc]4) ||[K:bass] .[G,B,].[B,D] .[G,B,].[B,D] | %102
 .[G,B,].[B,D] .[G,B,].[B,D] | [F,A,D]2 [F,A,D]2 | [F,A,D]2 [F,A,D]2 | %105
 .[G,B,].[B,D] .[G,B,].[B,D] | .[G,B,].[B,D] .[G,B,].[B,D] | [G,C]2 [G,CD]2 | [G,B,D]2 z2 | %109
[K:treble]!p! .[DAc]2 .[DAc]2 | .[GB]2 z2 e12 | .[Bfa]2 .[Bfa]2 | [eg]4 |] %113
V:3
 x4 | x8 | x8 | x8 | x22 | x8 | x10 | x8 | x16 | x8 | x2 E,8 | x8 | E,8 x5 | x8 | x8 | %15
 (E,B,)MG,B, E,B,G,B, | x8 | x8 | x8 | x15/2 | x8 | x14[K:treble] x2 | x28 | x15/2 | x2 .g2 z4 x2 | %25
 x8 | x8 | x8 | x10 | x8 | x12 | x4 | x22 | x8 | x2 E,8 | x8 | x22 |][M:3/4] x6 | x6 | x6 | x23/2 | %41
 E,,6 | E,,4 x14 | x6 | x6 | x6 | G,4 x2 | x6 | B,,,4 x14 | x6 | x6 | x6 | x19/2 |[K:treble] C6 | %54
 C4 x14 | (=F,2 A,2) [G,D=F]2 | x6 | x4 C,C, | C,C,C,C,C,C, | C,C, C,2 C,2 | !fermata!C,6 |] %61
[M:2/4] x4 | x4 | x4 | x4 | x4 | x4 | x4 | x4 || x4 | x8 | x4 | x4 | x4 | x4 | x4 | x4 :| x4 | x4 | %79
 x4 | x4 | x4 | x4 | x4 | x4 | x4 | x4 | x4 | x4 | x4 | x4 | x4 | x4 :| x4 | x10 | x4 | x10 | x4 | %98
 x4 | x4 | x4 ||[K:bass] x4 | x4 | x4 | x4 | x4 | x4 | x4 | x4 |[K:treble] x4 | x16 | x4 | x4 |] %113

